;FLAVOR:Marlin
;TIME:2016
;Filament used: 2.51452m
;Layer height: 0.28
;MINX:128.52
;MINY:129.511
;MINZ:0.2
;MAXX:171.48
;MAXY:172.488
;MAXZ:37.16
;TARGET_MACHINE.NAME:Creality CR-10
;Generated with Cura_SteamEngine 5.11.0
M140 S85
M105
M190 S85
M104 S260
M105
M109 S260
M201 X500.00 Y500.00 Z100.00 E5000.00 ;Setup machine max acceleration
M203 X500.00 Y500.00 Z10.00 E50.00 ;Setup machine max feedrate
M204 P500.00 R1000.00 T500.00 ;Setup Print/Retract/Travel acceleration
M205 X8.00 Y8.00 Z0.40 E5.00 ;Setup Jerk
M220 S100 ;Reset Feedrate
M221 S100 ;Reset Flowrate

G28 ;Home

G92 E0 ;Reset Extruder
G1 Z2.0 F3000 ;Move Z Axis up
G1 X10.1 Y20 Z0.28 F5000.0 ;Move to start position
G1 X10.1 Y200.0 Z0.28 F1500.0 E15 ;Draw the first line
G1 X10.4 Y200.0 Z0.28 F5000.0 ;Move to side a little
G1 X10.4 Y20 Z0.28 F1500.0 E30 ;Draw the second line
G92 E0 ;Reset Extruder
G1 Z2.0 F3000 ;Move Z Axis up

M82 ;absolute extrusion mode
G92 E0
G92 E0
G1 F2700 E-5
;LAYER_COUNT:133
;LAYER:0
M107
G0 F6000 X134.802 Y135.81 Z0.2
;TYPE:SKIRT
G1 F2700 E0
G1 F600 X135.277 Y135.344 E0.0332
G1 X135.668 Y134.994 E0.05938
G1 X136.385 Y134.381 E0.10644
G1 X136.795 Y134.046 E0.13286
G1 X137.386 Y133.603 E0.1697
G1 X137.805 Y133.313 E0.19513
G1 X138.635 Y132.767 E0.24469
G1 X139.119 Y132.466 E0.27313
G1 X139.897 Y132.032 E0.31757
G1 X140.403 Y131.773 E0.34593
G1 X140.996 Y131.489 E0.37874
G1 X141.512 Y131.257 E0.40696
G1 X142.052 Y131.035 E0.43609
G1 X142.673 Y130.799 E0.46923
G1 X143.17 Y130.624 E0.49552
G1 X143.61 Y130.487 E0.51851
G1 X144.374 Y130.269 E0.55815
G1 X145.257 Y130.042 E0.60364
G1 X145.768 Y129.928 E0.62976
G1 X146.667 Y129.771 E0.67529
G1 X147.224 Y129.697 E0.70332
G1 X148.568 Y129.558 E0.77073
G1 X149.6 Y129.511 E0.82227
G1 X150.66 Y129.518 E0.87515
G1 X151.261 Y129.543 E0.90516
G1 X152.441 Y129.646 E0.96426
G1 X153.063 Y129.723 E0.99553
G1 X153.548 Y129.8 E1.02003
G1 X154.203 Y129.923 E1.05328
G1 X154.901 Y130.076 E1.08893
G1 X155.459 Y130.22 E1.11768
G1 X156.441 Y130.501 E1.16864
G1 X156.891 Y130.642 E1.19216
G1 X157.986 Y131.049 E1.25044
G1 X158.595 Y131.303 E1.28336
G1 X159.587 Y131.769 E1.33804
G1 X160.218 Y132.093 E1.37343
G1 X161.102 Y132.596 E1.42417
G1 X161.538 Y132.868 E1.44981
G1 X162.2 Y133.315 E1.48966
G1 X162.911 Y133.827 E1.53338
G1 X163.395 Y134.194 E1.56368
G1 X164.015 Y134.706 E1.60379
G1 X164.75 Y135.37 E1.65321
G1 X165.086 Y135.693 E1.67646
G1 X165.753 Y136.381 E1.72427
G1 X166.392 Y137.1 E1.77226
G1 X166.888 Y137.713 E1.8116
G1 X167.217 Y138.138 E1.83842
G1 X167.772 Y138.916 E1.88609
G1 X168.318 Y139.761 E1.93629
G1 X168.601 Y140.236 E1.96387
G1 X168.986 Y140.933 E2.0036
G1 X169.456 Y141.87 E2.0559
G1 X169.752 Y142.535 E2.09221
G1 X170.086 Y143.359 E2.13657
G1 X170.279 Y143.88 E2.16429
G1 X170.556 Y144.731 E2.20894
G1 X170.771 Y145.49 E2.24829
G1 X170.91 Y146.064 E2.27776
G1 X171.048 Y146.718 E2.3111
G1 X171.241 Y147.785 E2.3652
G1 X171.364 Y148.733 E2.41289
G1 X171.438 Y149.592 E2.45591
G1 X171.48 Y150.579 E2.50519
G1 X171.478 Y151.472 E2.54975
G1 X171.439 Y152.398 E2.59599
G1 X171.361 Y153.295 E2.64091
G1 X171.237 Y154.244 E2.68865
G1 X171.06 Y155.257 E2.73996
G1 X170.89 Y156.049 E2.78037
G1 X170.772 Y156.515 E2.80435
G1 X170.514 Y157.41 E2.85082
G1 X170.322 Y157.998 E2.88168
G1 X170.078 Y158.663 E2.91702
G1 X169.9 Y159.115 E2.94126
G1 X169.546 Y159.934 E2.98577
G1 X169.089 Y160.871 E3.03778
G1 X168.76 Y161.483 E3.07245
G1 X168.455 Y161.998 E3.10231
G1 X167.948 Y162.805 E3.14986
G1 X167.634 Y163.277 E3.17814
G1 X167.151 Y163.949 E3.21943
G1 X166.838 Y164.355 E3.24501
G1 X166.22 Y165.103 E3.29341
G1 X165.879 Y165.483 E3.31888
G1 X165.15 Y166.24 E3.37132
G1 X164.451 Y166.899 E3.41924
G1 X163.582 Y167.644 E3.47635
G1 X163.195 Y167.962 E3.50134
G1 X162.614 Y168.397 E3.53755
G1 X162.195 Y168.687 E3.56297
G1 X161.368 Y169.231 E3.61236
G1 X160.937 Y169.501 E3.63773
G1 X160.114 Y169.961 E3.68477
G1 X159.359 Y170.346 E3.72705
G1 X158.884 Y170.569 E3.75323
G1 X158.277 Y170.834 E3.78627
G1 X157.327 Y171.201 E3.83708
G1 X156.85 Y171.369 E3.86231
G1 X156.373 Y171.517 E3.88723
G1 X155.012 Y171.898 E3.95774
G1 X154.216 Y172.072 E3.99839
G1 X153.177 Y172.253 E4.05101
G1 X151.869 Y172.406 E4.11671
G1 X151.21 Y172.459 E4.14969
G1 X150.375 Y172.488 E4.19138
G1 X149.351 Y172.482 E4.24247
G1 X148.738 Y172.457 E4.27307
G1 X147.511 Y172.348 E4.33453
G1 X146.905 Y172.27 E4.36501
G1 X146.437 Y172.195 E4.38866
G1 X145.718 Y172.061 E4.42515
G1 X145.094 Y171.922 E4.45704
G1 X144.541 Y171.78 E4.48553
G1 X143.558 Y171.498 E4.53655
G1 X143.05 Y171.338 E4.56312
G1 X142.044 Y170.965 E4.61665
G1 X141.39 Y170.69 E4.65204
G1 X140.404 Y170.227 E4.70639
G1 X139.771 Y169.902 E4.74189
G1 X139.022 Y169.476 E4.78488
G1 X138.238 Y168.981 E4.83113
G1 X137.76 Y168.654 E4.86003
G1 X137.021 Y168.121 E4.90549
G1 X136.604 Y167.805 E4.93159
G1 X136.12 Y167.405 E4.96292
G1 X135.257 Y166.635 E5.02062
G1 X134.57 Y165.96 E5.06867
G1 X133.924 Y165.263 E5.11608
G1 X133.372 Y164.617 E5.15847
G1 X133.057 Y164.221 E5.18372
G1 X132.504 Y163.478 E5.22993
G1 X132.001 Y162.743 E5.27436
G1 X131.573 Y162.059 E5.31461
G1 X131.293 Y161.575 E5.34251
G1 X130.624 Y160.28 E5.41523
G1 X130.304 Y159.594 E5.453
G1 X129.883 Y158.55 E5.50916
G1 X129.609 Y157.791 E5.54941
G1 X129.444 Y157.268 E5.57678
G1 X129.23 Y156.509 E5.61612
G1 X129.115 Y156.03 E5.64069
G1 X128.899 Y155.034 E5.69154
G1 X128.798 Y154.508 E5.71826
G1 X128.715 Y153.968 E5.74552
G1 X128.641 Y153.325 E5.77781
G1 X128.562 Y152.404 E5.82393
G1 X128.52 Y151.421 E5.87301
G1 X128.522 Y150.52 E5.91797
G1 X128.562 Y149.59 E5.96441
G1 X128.641 Y148.686 E6.00968
G1 X128.765 Y147.739 E6.05733
G1 X128.935 Y146.773 E6.10626
G1 X129.042 Y146.242 E6.13329
G1 X129.235 Y145.462 E6.17338
G1 X129.451 Y144.705 E6.21265
G1 X129.788 Y143.711 E6.26501
G1 X130.27 Y142.486 E6.33069
G1 X130.489 Y141.985 E6.35797
G1 X130.738 Y141.464 E6.38678
G1 X131.022 Y140.913 E6.4177
G1 X131.342 Y140.334 E6.45071
G1 X131.648 Y139.82 E6.48055
G1 X131.999 Y139.266 E6.51327
G1 X132.398 Y138.668 E6.54914
G1 X132.649 Y138.313 E6.57083
G1 X132.992 Y137.859 E6.59922
G1 X133.515 Y137.21 E6.6408
G1 X133.922 Y136.737 E6.67193
G1 X134.21 Y136.424 E6.69315
G1 X134.802 Y135.81 E6.7357
G0 F6000 X135.222 Y136.238
G1 F600 X135.677 Y135.791 E6.76752
G1 X136.058 Y135.45 E6.79303
G1 X136.765 Y134.845 E6.83946
G1 X137.155 Y134.526 E6.86459
G1 X137.728 Y134.096 E6.90034
G1 X138.135 Y133.814 E6.92504
G1 X138.952 Y133.276 E6.97384
G1 X139.411 Y132.99 E7.00082
G1 X140.171 Y132.566 E7.04424
G1 X140.662 Y132.314 E7.07178
G1 X141.242 Y132.036 E7.10387
G1 X141.74 Y131.812 E7.13111
G1 X142.265 Y131.596 E7.15943
G1 X142.872 Y131.365 E7.19183
G1 X143.349 Y131.197 E7.21706
G1 X143.775 Y131.064 E7.23933
G1 X144.523 Y130.85 E7.27814
G1 X145.388 Y130.628 E7.3227
G1 X145.899 Y130.514 E7.34882
G1 X146.746 Y130.366 E7.39171
G1 X147.286 Y130.294 E7.41889
G1 X148.63 Y130.155 E7.4863
G1 X149.597 Y130.111 E7.5346
G1 X150.635 Y130.117 E7.58638
G1 X151.209 Y130.141 E7.61505
G1 X152.389 Y130.244 E7.67414
G1 X152.969 Y130.316 E7.7033
G1 X153.438 Y130.39 E7.72699
G1 X154.075 Y130.509 E7.75932
G1 X154.751 Y130.657 E7.79384
G1 X155.294 Y130.797 E7.82182
G1 X156.262 Y131.074 E7.87205
G1 X156.712 Y131.215 E7.89558
G1 X157.756 Y131.603 E7.95114
G1 X158.34 Y131.846 E7.9827
G1 X159.313 Y132.303 E8.03633
G1 X159.944 Y132.627 E8.07172
G1 X160.785 Y133.106 E8.12001
G1 X161.202 Y133.365 E8.1445
G1 X161.849 Y133.802 E8.18345
G1 X162.549 Y134.306 E8.22648
G1 X163.013 Y134.657 E8.25551
G1 X163.633 Y135.169 E8.29562
G1 X164.334 Y135.803 E8.34278
G1 X164.67 Y136.126 E8.36603
G1 X165.305 Y136.78 E8.41151
G1 X165.926 Y137.478 E8.45812
G1 X166.414 Y138.08 E8.49678
G1 X166.729 Y138.487 E8.52246
G1 X167.268 Y139.242 E8.56874
G1 X167.803 Y140.069 E8.61788
G1 X168.076 Y140.526 E8.64444
G1 X168.45 Y141.203 E8.68302
G1 X168.908 Y142.114 E8.7339
G1 X169.196 Y142.76 E8.76918
G1 X169.523 Y143.567 E8.81262
G1 X169.716 Y144.088 E8.84034
G1 X169.979 Y144.895 E8.88269
G1 X170.188 Y145.631 E8.92086
G1 X170.323 Y146.188 E8.94945
G1 X170.458 Y146.825 E8.98194
G1 X170.646 Y147.863 E9.03457
G1 X170.766 Y148.784 E9.0809
G1 X170.84 Y149.643 E9.12392
G1 X170.88 Y150.578 E9.17061
G1 X170.879 Y151.447 E9.21396
G1 X170.841 Y152.347 E9.2589
G1 X170.766 Y153.218 E9.30252
G1 X170.646 Y154.141 E9.34896
G1 X170.473 Y155.131 E9.3991
G1 X170.308 Y155.902 E9.43843
G1 X170.195 Y156.349 E9.46143
G1 X169.937 Y157.244 E9.5079
G1 X169.758 Y157.792 E9.53667
G1 X169.52 Y158.443 E9.57125
G1 X169.349 Y158.877 E9.59452
G1 X168.995 Y159.696 E9.63903
G1 X168.561 Y160.587 E9.68848
G1 X168.243 Y161.178 E9.72196
G1 X167.947 Y161.679 E9.75099
G1 X167.448 Y162.473 E9.79778
G1 X167.147 Y162.927 E9.82495
G1 X166.675 Y163.583 E9.86527
G1 X166.375 Y163.973 E9.88982
G1 X165.773 Y164.702 E9.93699
G1 X165.432 Y165.082 E9.96246
G1 X164.738 Y165.803 E10.01239
G1 X164.039 Y166.462 E10.06032
G1 X163.201 Y167.181 E10.1154
G1 X162.835 Y167.482 E10.13904
G1 X162.272 Y167.904 E10.17415
G1 X161.865 Y168.186 E10.19885
G1 X161.049 Y168.723 E10.24759
G1 X160.644 Y168.977 E10.27144
G1 X159.821 Y169.437 E10.31847
G1 X159.104 Y169.803 E10.35864
G1 X158.644 Y170.019 E10.38399
G1 X158.061 Y170.274 E10.41574
G1 X157.127 Y170.635 E10.46569
G1 X156.672 Y170.796 E10.48977
G1 X156.211 Y170.939 E10.51385
G1 X154.85 Y171.32 E10.58436
G1 X154.113 Y171.481 E10.622
G1 X153.107 Y171.657 E10.67295
G1 X151.821 Y171.808 E10.73755
G1 X151.189 Y171.859 E10.76919
G1 X150.378 Y171.888 E10.80967
G1 X149.376 Y171.883 E10.85966
G1 X148.791 Y171.859 E10.88887
G1 X147.587 Y171.753 E10.94917
G1 X147 Y171.678 E10.9787
G1 X146.547 Y171.605 E11.00159
G1 X145.848 Y171.475 E11.03706
G1 X145.243 Y171.341 E11.06797
G1 X144.706 Y171.203 E11.09564
G1 X143.738 Y170.926 E11.14587
G1 X143.259 Y170.775 E11.17093
G1 X142.253 Y170.402 E11.22445
G1 X141.645 Y170.147 E11.25735
G1 X140.678 Y169.693 E11.31064
G1 X140.045 Y169.368 E11.34614
G1 X139.342 Y168.968 E11.3865
G1 X138.576 Y168.485 E11.43167
G1 X138.111 Y168.168 E11.45975
G1 X137.383 Y167.642 E11.50456
G1 X136.986 Y167.342 E11.52938
G1 X136.519 Y166.957 E11.55958
G1 X135.677 Y166.207 E11.61584
G1 X135.01 Y165.552 E11.66248
G1 X134.38 Y164.873 E11.70869
G1 X133.841 Y164.243 E11.75005
G1 X133.538 Y163.863 E11.7743
G1 X132.999 Y163.139 E11.81933
G1 X132.496 Y162.404 E11.86376
G1 X132.092 Y161.759 E11.90173
G1 X131.826 Y161.299 E11.92824
G1 X131.168 Y160.026 E11.99974
G1 X130.848 Y159.34 E12.0375
G1 X130.447 Y158.346 E12.09098
G1 X130.181 Y157.609 E12.13007
G1 X130.021 Y157.105 E12.15645
G1 X129.813 Y156.369 E12.19461
G1 X129.701 Y155.903 E12.21852
G1 X129.488 Y154.921 E12.26865
G1 X129.391 Y154.416 E12.2943
G1 X129.311 Y153.899 E12.3204
G1 X129.239 Y153.274 E12.35179
G1 X129.16 Y152.353 E12.39791
G1 X129.12 Y151.422 E12.4444
G1 X129.121 Y150.546 E12.4881
G1 X129.16 Y149.642 E12.53325
G1 X129.236 Y148.764 E12.57721
G1 X129.356 Y147.843 E12.62355
G1 X129.523 Y146.891 E12.67177
G1 X129.624 Y146.386 E12.69746
G1 X129.812 Y145.627 E12.73647
G1 X130.028 Y144.87 E12.77575
G1 X130.346 Y143.931 E12.82521
G1 X130.82 Y142.726 E12.88981
G1 X131.039 Y142.225 E12.91709
G1 X131.271 Y141.739 E12.94396
G1 X131.547 Y141.203 E12.97404
G1 X131.857 Y140.641 E13.00606
G1 X132.155 Y140.141 E13.0351
G1 X132.506 Y139.587 E13.06782
G1 X132.888 Y139.014 E13.10217
G1 X133.127 Y138.675 E13.12287
G1 X133.46 Y138.235 E13.1504
G1 X133.97 Y137.601 E13.19099
G1 X134.363 Y137.143 E13.2211
G1 X134.642 Y136.84 E13.24165
G1 X135.222 Y136.238 E13.28335
G0 F6000 X135.642 Y136.666
G1 F600 X136.078 Y136.238 E13.31383
G1 X136.448 Y135.906 E13.33864
G1 X137.145 Y135.309 E13.38442
G1 X137.515 Y135.006 E13.40828
G1 X138.071 Y134.589 E13.44295
G1 X138.465 Y134.315 E13.4669
G1 X139.269 Y133.785 E13.51494
G1 X139.704 Y133.514 E13.54051
G1 X140.445 Y133.1 E13.58286
G1 X140.922 Y132.855 E13.60961
G1 X141.489 Y132.583 E13.64098
G1 X141.968 Y132.367 E13.6672
G1 X142.479 Y132.157 E13.69476
G1 X143.072 Y131.931 E13.72642
G1 X143.528 Y131.77 E13.75055
G1 X143.941 Y131.641 E13.77213
G1 X144.672 Y131.431 E13.81008
G1 X145.519 Y131.214 E13.8537
G1 X146.03 Y131.1 E13.87982
G1 X146.826 Y130.961 E13.92014
G1 X147.348 Y130.891 E13.94641
G1 X148.692 Y130.752 E14.01382
G1 X149.594 Y130.711 E14.05887
G1 X150.61 Y130.716 E14.10956
G1 X151.157 Y130.739 E14.13687
G1 X152.337 Y130.842 E14.19597
G1 X152.876 Y130.909 E14.22306
G1 X153.328 Y130.98 E14.24589
G1 X153.947 Y131.095 E14.2773
G1 X154.601 Y131.238 E14.3107
G1 X155.129 Y131.374 E14.3379
G1 X156.083 Y131.647 E14.38741
G1 X156.533 Y131.788 E14.41093
G1 X157.526 Y132.157 E14.46379
G1 X158.085 Y132.389 E14.49398
G1 X159.039 Y132.837 E14.54656
G1 X159.67 Y133.161 E14.58195
G1 X160.468 Y133.616 E14.62778
G1 X160.885 Y133.875 E14.65227
G1 X161.499 Y134.289 E14.68922
G1 X162.187 Y134.784 E14.7315
G1 X162.631 Y135.12 E14.75928
G1 X163.251 Y135.632 E14.7994
G1 X163.919 Y136.236 E14.84433
G1 X164.24 Y136.544 E14.86652
G1 X164.857 Y137.179 E14.91069
G1 X165.46 Y137.856 E14.95592
G1 X165.94 Y138.448 E14.99395
G1 X166.241 Y138.836 E15.01845
G1 X166.764 Y139.568 E15.06333
G1 X167.288 Y140.377 E15.11142
G1 X167.551 Y140.817 E15.13699
G1 X167.914 Y141.473 E15.1744
G1 X168.36 Y142.359 E15.22388
G1 X168.64 Y142.986 E15.25814
G1 X168.961 Y143.776 E15.30069
G1 X169.146 Y144.274 E15.32719
G1 X169.402 Y145.059 E15.36838
G1 X169.605 Y145.772 E15.40537
G1 X169.736 Y146.313 E15.43314
G1 X169.868 Y146.932 E15.46472
G1 X170.051 Y147.941 E15.51588
G1 X170.168 Y148.835 E15.56086
G1 X170.242 Y149.694 E15.60387
G1 X170.28 Y150.578 E15.64802
G1 X170.28 Y151.422 E15.69012
G1 X170.243 Y152.296 E15.73377
G1 X170.171 Y153.141 E15.77608
G1 X170.055 Y154.038 E15.8212
G1 X169.886 Y155.006 E15.87022
G1 X169.726 Y155.755 E15.90844
G1 X169.618 Y156.183 E15.93046
G1 X169.36 Y157.078 E15.97693
G1 X169.194 Y157.586 E16.00359
G1 X168.956 Y158.237 E16.03817
G1 X168.798 Y158.639 E16.05972
G1 X168.444 Y159.458 E16.10424
G1 X168.032 Y160.303 E16.15114
G1 X167.726 Y160.873 E16.18341
G1 X167.439 Y161.36 E16.21161
G1 X166.948 Y162.142 E16.25768
G1 X166.66 Y162.577 E16.28371
G1 X166.2 Y163.217 E16.32303
G1 X165.912 Y163.591 E16.34658
G1 X165.326 Y164.302 E16.39255
G1 X165 Y164.666 E16.41693
G1 X164.326 Y165.366 E16.46541
G1 X163.627 Y166.025 E16.51333
G1 X162.82 Y166.718 E16.5664
G1 X162.475 Y167.002 E16.5887
G1 X161.929 Y167.411 E16.62273
G1 X161.535 Y167.685 E16.64667
G1 X160.731 Y168.215 E16.69472
G1 X160.351 Y168.453 E16.71709
G1 X159.528 Y168.913 E16.76413
G1 X158.849 Y169.26 E16.80217
G1 X158.404 Y169.469 E16.8267
G1 X157.844 Y169.714 E16.85719
G1 X156.927 Y170.069 E16.90625
G1 X156.472 Y170.23 E16.93033
G1 X156.049 Y170.361 E16.95242
G1 X154.688 Y170.742 E17.02293
G1 X154.005 Y170.891 E17.05781
G1 X153.037 Y171.061 E17.10684
G1 X151.773 Y171.21 E17.17034
G1 X151.167 Y171.259 E17.20067
G1 X150.38 Y171.288 E17.23996
G1 X149.401 Y171.284 E17.2888
G1 X148.843 Y171.261 E17.31667
G1 X147.663 Y171.158 E17.37576
G1 X147.096 Y171.086 E17.40428
G1 X146.656 Y171.015 E17.42651
G1 X145.977 Y170.889 E17.46097
G1 X145.392 Y170.76 E17.49085
G1 X144.871 Y170.626 E17.51769
G1 X143.917 Y170.353 E17.5672
G1 X143.467 Y170.212 E17.59072
G1 X142.484 Y169.848 E17.64302
G1 X141.9 Y169.604 E17.6746
G1 X140.952 Y169.159 E17.72684
G1 X140.319 Y168.834 E17.76234
G1 X139.662 Y168.46 E17.80006
G1 X138.914 Y167.989 E17.84416
G1 X138.462 Y167.681 E17.87145
G1 X137.745 Y167.164 E17.91555
G1 X137.367 Y166.878 E17.9392
G1 X136.918 Y166.509 E17.96819
G1 X136.097 Y165.779 E18.023
G1 X135.45 Y165.144 E18.06823
G1 X134.836 Y164.483 E18.11324
G1 X134.31 Y163.868 E18.15361
G1 X134.019 Y163.504 E18.17686
G1 X133.494 Y162.8 E18.22068
G1 X133.004 Y162.085 E18.26392
G1 X132.611 Y161.459 E18.3008
G1 X132.359 Y161.023 E18.32592
G1 X131.701 Y159.75 E18.39741
G1 X131.404 Y159.115 E18.43239
G1 X131.011 Y158.142 E18.48474
G1 X130.753 Y157.427 E18.52266
G1 X130.598 Y156.941 E18.54811
G1 X130.396 Y156.229 E18.58504
G1 X130.287 Y155.776 E18.60828
G1 X130.077 Y154.808 E18.6577
G1 X129.984 Y154.324 E18.68229
G1 X129.907 Y153.83 E18.70723
G1 X129.837 Y153.223 E18.73772
G1 X129.758 Y152.302 E18.78383
G1 X129.72 Y151.422 E18.82778
G1 X129.72 Y150.572 E18.87019
